Numix-Circle/48x48/apps/kst.svg

<?xml version="1.0" encoding="UTF-8" standalone="no"?>
<svg
   xmlns:dc="http://purl.org/dc/elements/1.1/"
   xmlns:cc="http://creativecommons.org/ns#"
   xmlns:rdf="http://www.w3.org/1999/02/22-rdf-syntax-ns#"
   xmlns:svg="http://www.w3.org/2000/svg"
   xmlns="http://www.w3.org/2000/svg"
   xmlns:sodipodi="http://sodipodi.sourceforge.net/DTD/sodipodi-0.dtd"
   xmlns:inkscape="http://www.inkscape.org/namespaces/inkscape"
   viewBox="0 0 48 48"
   id="svg2"
   version="1.1"
   inkscape:version="0.91 r13725"
   width="100%"
   height="100%"
   sodipodi:docname="kst.svg">
  <metadata
     id="metadata61">
    <rdf:RDF>
      <cc:Work
         rdf:about="">
        <dc:format>image/svg+xml</dc:format>
        <dc:type
           rdf:resource="http://purl.org/dc/dcmitype/StillImage" />
        <dc:title></dc:title>
      </cc:Work>
    </rdf:RDF>
  </metadata>
  <sodipodi:namedview
     pagecolor="#ffffff"
     bordercolor="#666666"
     borderopacity="1"
     objecttolerance="10"
     gridtolerance="10"
     guidetolerance="10"
     inkscape:pageopacity="0"
     inkscape:pageshadow="2"
     inkscape:window-width="1366"
     inkscape:window-height="713"
     id="namedview59"
     showgrid="false"
     showguides="false"
     inkscape:guide-bbox="true"
     inkscape:zoom="1"
     inkscape:cx="18.075085"
     inkscape:cy="23.397709"
     inkscape:window-x="0"
     inkscape:window-y="28"
     inkscape:window-maximized="1"
     inkscape:current-layer="svg2">
    <inkscape:grid
       type="xygrid"
       id="grid3038" />
  </sodipodi:namedview>
  <defs
     id="defs4">
    <linearGradient
       id="linearGradient3764"
       x1="1"
       x2="47"
       gradientUnits="userSpaceOnUse"
       gradientTransform="matrix(0,-1,1,0,-1.5e-6,47.999998)">
      <stop
         stop-color="#e4e4e4"
         stop-opacity="1"
         id="stop7" />
      <stop
         offset="1"
         stop-color="#eee"
         stop-opacity="1"
         id="stop9" />
    </linearGradient>
  </defs>
  <g
     id="g21">
    <path
       d="m 36.31 5 c 5.859 4.062 9.688 10.831 9.688 18.5 c 0 12.426 -10.07 22.5 -22.5 22.5 c -7.669 0 -14.438 -3.828 -18.5 -9.688 c 1.037 1.822 2.306 3.499 3.781 4.969 c 4.085 3.712 9.514 5.969 15.469 5.969 c 12.703 0 23 -10.298 23 -23 c 0 -5.954 -2.256 -11.384 -5.969 -15.469 c -1.469 -1.475 -3.147 -2.744 -4.969 -3.781 z m 4.969 3.781 c 3.854 4.113 6.219 9.637 6.219 15.719 c 0 12.703 -10.297 23 -23 23 c -6.081 0 -11.606 -2.364 -15.719 -6.219 c 4.16 4.144 9.883 6.719 16.219 6.719 c 12.703 0 23 -10.298 23 -23 c 0 -6.335 -2.575 -12.06 -6.719 -16.219 z"
       opacity="0.05"
       id="path23" />
    <path
       d="m 41.28 8.781 c 3.712 4.085 5.969 9.514 5.969 15.469 c 0 12.703 -10.297 23 -23 23 c -5.954 0 -11.384 -2.256 -15.469 -5.969 c 4.113 3.854 9.637 6.219 15.719 6.219 c 12.703 0 23 -10.298 23 -23 c 0 -6.081 -2.364 -11.606 -6.219 -15.719 z"
       opacity="0.1"
       id="path25" />
    <path
       d="m 31.25 2.375 c 8.615 3.154 14.75 11.417 14.75 21.13 c 0 12.426 -10.07 22.5 -22.5 22.5 c -9.708 0 -17.971 -6.135 -21.12 -14.75 a 23 23 0 0 0 44.875 -7 a 23 23 0 0 0 -16 -21.875 z"
       opacity="0.2"
       id="path27" />
  </g>
  <g
     id="g29">
    <path
       d="m 24 1 c 12.703 0 23 10.297 23 23 c 0 12.703 -10.297 23 -23 23 -12.703 0 -23 -10.297 -23 -23 0 -12.703 10.297 -23 23 -23 z"
       fill="url(#linearGradient3764)"
       fill-opacity="1"
       id="path31" />
  </g>
  <g
     id="g33" />
  <path
     inkscape:connector-curvature="0"
     style="fill:#a0dad0;fill-opacity:1"
     d="m 24,1 0,7 -7,0 0,-5.90625 C 16.662644,2.2014165 16.33039,2.3148864 16,2.4375 L 16,8 9,8 9,6.5625 C 8.654277,6.8602558 8.327356,7.182486 8,7.5 L 8,8 7.5,8 C 7.182486,8.3273558 6.860256,8.6542772 6.5625,9 L 8,9 8,16 2.4375,16 C 2.3148864,16.33039 2.2014165,16.662644 2.09375,17 L 8,17 8,24 1,24 c 0,0.334333 0.017128,0.669144 0.03125,1 L 8,25 8,32 2.4375,32 c 0.1268948,0.341926 0.2637817,0.665971 0.40625,1 L 8,33 8,40 7.5,40 c 0.481443,0.496366 0.975785,0.986016 1.5,1.4375 L 9,41 l 7,0 0,4.5625 c 0.33039,0.122614 0.662644,0.236083 1,0.34375 L 17,41 l 7,0 0,6 c 0.334333,0 0.669144,-0.01713 1,-0.03125 L 25,41 l 7,0 0,4.5625 c 0.341926,-0.126895 0.665971,-0.263782 1,-0.40625 L 33,41 l 6.5,0 c 0.521894,-0.476163 1.023837,-0.978106 1.5,-1.5 l 0,-6.5 4.15625,0 c 0.142468,-0.334029 0.279355,-0.658074 0.40625,-1 L 41,32 l 0,-7 5.96875,0 C 46.982872,24.669144 47,24.334333 47,24 l -6,0 0,-7 4.90625,0 C 45.798583,16.662644 45.685114,16.33039 45.5625,16 L 41,16 41,9 41.4375,9 C 40.986016,8.4757847 40.496366,7.9814426 40,7.5 L 40,8 33,8 33,2.84375 C 32.665971,2.7012817 32.341926,2.5643948 32,2.4375 L 32,8 25,8 25,1.03125 C 24.669144,1.0171284 24.334333,1 24,1 z m -15,8 7,0 0,7 -7,0 0,-7 z m 8,0 7,0 0,7 -7,0 0,-7 z m 8,0 7,0 0,7 -7,0 0,-7 z m 8,0 7,0 0,7 -7,0 0,-7 z m -24,8 7,0 0,7 -7,0 0,-7 z m 8,0 7,0 0,7 -7,0 0,-7 z m 8,0 7,0 0,7 -7,0 0,-7 z m 8,0 7,0 0,7 -7,0 0,-7 z m -24,8 7,0 0,7 -7,0 0,-7 z m 8,0 7,0 0,7 -7,0 0,-7 z m 8,0 7,0 0,7 -7,0 0,-7 z m 8,0 7,0 0,7 -7,0 0,-7 z m -24,8 7,0 0,7 -7,0 0,-7 z m 8,0 7,0 0,7 -7,0 0,-7 z m 8,0 7,0 0,7 -7,0 0,-7 z m 8,0 7,0 0,7 -7,0 0,-7 z"
     id="path31-6" />
  <path
     inkscape:connector-curvature="0"
     style="fill:#666666"
     d="m 24,1 0,23 -23,0 c 0,0.335398 0.011179,0.668102 0.025391,1 L 24,25 24,47 c 0.335398,0 0.668102,-0.01118 1,-0.02539 L 25,25 46.974609,25 C 46.988821,24.668102 47,24.335398 47,24 L 25,24 25,1.0253906 C 24.668102,1.0111793 24.335398,1 24,1 Z"
     id="path31-8" />
  <g
     id="g55">
    <path
       d="m 40.03 7.531 c 3.712 4.084 5.969 9.514 5.969 15.469 0 12.703 -10.297 23 -23 23 c -5.954 0 -11.384 -2.256 -15.469 -5.969 4.178 4.291 10.01 6.969 16.469 6.969 c 12.703 0 23 -10.298 23 -23 0 -6.462 -2.677 -12.291 -6.969 -16.469 z"
       opacity="0.1"
       id="path57" />
  </g>
  <g
     id="g5322">
    <path
       style="color:#000000;font-style:normal;font-variant:normal;font-weight:normal;font-stretch:normal;font-size:medium;line-height:normal;font-family:sans-serif;text-indent:0;text-align:start;text-decoration:none;text-decoration-line:none;text-decoration-style:solid;text-decoration-color:#000000;letter-spacing:normal;word-spacing:normal;text-transform:none;direction:ltr;block-progression:tb;writing-mode:lr-tb;baseline-shift:baseline;text-anchor:start;white-space:normal;clip-rule:nonzero;display:inline;overflow:visible;visibility:visible;opacity:1;isolation:auto;mix-blend-mode:normal;color-interpolation:sRGB;color-interpolation-filters:linearRGB;solid-color:#000000;solid-opacity:1;fill:#000000;fill-opacity:0.09803922;fill-rule:evenodd;stroke:none;stroke-width:1.49994361;stroke-linecap:butt;stroke-linejoin:miter;stroke-miterlimit:4;stroke-dasharray:none;stroke-dashoffset:0;stroke-opacity:1;color-rendering:auto;image-rendering:auto;shape-rendering:auto;text-rendering:auto;enable-background:accumulate"
       d="m 35.546875,38 -0.04492,-0.703125 c -0.348026,-5.623611 -0.91874,-9.480003 -1.628906,-11.958984 -0.710166,-2.478982 -1.554794,-3.467532 -2.193359,-3.703125 -0.319283,-0.117797 -0.647545,-0.108565 -1.083985,0.04687 -0.43644,0.15544 -0.954294,0.471823 -1.503906,0.912109 -1.099224,0.880572 -2.321208,2.241092 -3.554688,3.623047 -1.233479,1.381955 -2.476733,2.78425 -3.734375,3.787109 -0.62882,0.50143 -1.263662,0.909239 -1.9375,1.144532 -0.673838,0.235292 -1.413935,0.283555 -2.105468,0.01953 C 16.3767,30.639914 15.423781,29.110992 14.666018,26.427728 13.908252,23.744471 13.344153,19.704671 13,14 l 1.498047,0 c 0.340679,5.647088 0.906066,9.522178 1.611328,12.019531 0.705262,2.497354 1.549206,3.505095 2.185547,3.748047 0.31817,0.121476 0.6428,0.114217 1.076172,-0.03711 0.433372,-0.151326 0.947925,-0.461321 1.496094,-0.898438 1.096336,-0.874233 2.317524,-2.231576 3.550781,-3.613281 1.233256,-1.381705 2.47787,-2.788743 3.736328,-3.796875 0.629229,-0.504066 1.263952,-0.912457 1.9375,-1.152344 0.673548,-0.239886 1.413296,-0.297107 2.107422,-0.04102 1.388251,0.51219 2.351262,2.030469 3.115234,4.697271 C 36.078425,27.592583 36.648378,32.318297 37,38 c -1.011049,-0.01519 -1,0 -1.453125,0 z"
       id="path4217"
       inkscape:connector-curvature="0"
       sodipodi:nodetypes="ccsssssssssccssssssssscc" />
    <path
       sodipodi:nodetypes="ccsssssssssccssssssssscc"
       inkscape:connector-curvature="0"
       id="path4209"
       d="m 34.546875,37 -0.04492,-0.703125 c -0.348026,-5.623611 -0.91874,-9.480003 -1.628906,-11.958984 -0.710166,-2.478982 -1.554794,-3.467532 -2.193359,-3.703125 -0.319283,-0.117797 -0.647545,-0.108565 -1.083985,0.04687 -0.43644,0.15544 -0.954294,0.471823 -1.503906,0.912109 -1.099224,0.880572 -2.321208,2.241092 -3.554688,3.623047 -1.233479,1.381955 -2.476733,2.78425 -3.734375,3.787109 -0.62882,0.50143 -1.263662,0.909239 -1.9375,1.144532 -0.673838,0.235292 -1.413935,0.283555 -2.105468,0.01953 C 15.3767,29.639914 14.423781,28.110992 13.666018,25.427728 12.908252,22.744471 12.344153,18.704671 12,13 l 1.498047,0 c 0.340679,5.647088 0.906066,9.522178 1.611328,12.019531 0.705262,2.497354 1.549206,3.505095 2.185547,3.748047 0.31817,0.121476 0.6428,0.114217 1.076172,-0.03711 0.433372,-0.151326 0.947925,-0.461321 1.496094,-0.898438 1.096336,-0.874233 2.317524,-2.231576 3.550781,-3.613281 1.233256,-1.381705 2.47787,-2.788743 3.736328,-3.796875 0.629229,-0.504066 1.263952,-0.912457 1.9375,-1.152344 0.673548,-0.239886 1.413296,-0.297107 2.107422,-0.04102 1.388251,0.51219 2.351262,2.030469 3.115234,4.697271 C 35.078425,26.592583 35.648378,31.318297 36,37 c -1.011049,-0.01519 -1,0 -1.453125,0 z"
       style="color:#000000;font-style:normal;font-variant:normal;font-weight:normal;font-stretch:normal;font-size:medium;line-height:normal;font-family:sans-serif;text-indent:0;text-align:start;text-decoration:none;text-decoration-line:none;text-decoration-style:solid;text-decoration-color:#000000;letter-spacing:normal;word-spacing:normal;text-transform:none;direction:ltr;block-progression:tb;writing-mode:lr-tb;baseline-shift:baseline;text-anchor:start;white-space:normal;clip-rule:nonzero;display:inline;overflow:visible;visibility:visible;opacity:1;isolation:auto;mix-blend-mode:normal;color-interpolation:sRGB;color-interpolation-filters:linearRGB;solid-color:#000000;solid-opacity:1;fill:#e04c4c;fill-opacity:1;fill-rule:evenodd;stroke:none;stroke-width:1.49994361;stroke-linecap:butt;stroke-linejoin:miter;stroke-miterlimit:4;stroke-dasharray:none;stroke-dashoffset:0;stroke-opacity:1;color-rendering:auto;image-rendering:auto;shape-rendering:auto;text-rendering:auto;enable-background:accumulate" />
  </g>
</svg>

<svg xmlns="http://www.w3.org/2000/svg" viewBox="0 0 48 48">
 <defs>
  <linearGradient id="linearGradient3764" x1="1" x2="47" gradientUnits="userSpaceOnUse" gradientTransform="matrix(0,-1,1,0,-1.5e-6,47.999998)">
   <stop style="stop-color:#e4e4e4;stop-opacity:1"/>
   <stop offset="1" style="stop-color:#eee;stop-opacity:1"/>
  </linearGradient>
 </defs>
 <g>
  <path d="m 36.31 5 c 5.859 4.062 9.688 10.831 9.688 18.5 c 0 12.426 -10.07 22.5 -22.5 22.5 c -7.669 0 -14.438 -3.828 -18.5 -9.688 c 1.037 1.822 2.306 3.499 3.781 4.969 c 4.085 3.712 9.514 5.969 15.469 5.969 c 12.703 0 23 -10.298 23 -23 c 0 -5.954 -2.256 -11.384 -5.969 -15.469 c -1.469 -1.475 -3.147 -2.744 -4.969 -3.781 z m 4.969 3.781 c 3.854 4.113 6.219 9.637 6.219 15.719 c 0 12.703 -10.297 23 -23 23 c -6.081 0 -11.606 -2.364 -15.719 -6.219 c 4.16 4.144 9.883 6.719 16.219 6.719 c 12.703 0 23 -10.298 23 -23 c 0 -6.335 -2.575 -12.06 -6.719 -16.219 z" style="opacity:0.05"/>
  <path d="m 41.28 8.781 c 3.712 4.085 5.969 9.514 5.969 15.469 c 0 12.703 -10.297 23 -23 23 c -5.954 0 -11.384 -2.256 -15.469 -5.969 c 4.113 3.854 9.637 6.219 15.719 6.219 c 12.703 0 23 -10.298 23 -23 c 0 -6.081 -2.364 -11.606 -6.219 -15.719 z" style="opacity:0.1"/>
  <path d="m 31.25 2.375 c 8.615 3.154 14.75 11.417 14.75 21.13 c 0 12.426 -10.07 22.5 -22.5 22.5 c -9.708 0 -17.971 -6.135 -21.12 -14.75 a 23 23 0 0 0 44.875 -7 a 23 23 0 0 0 -16 -21.875 z" style="opacity:0.2"/>
 </g>
 <g>
  <path d="m 24 1 c 12.703 0 23 10.297 23 23 c 0 12.703 -10.297 23 -23 23 -12.703 0 -23 -10.297 -23 -23 0 -12.703 10.297 -23 23 -23 z" style="fill:url(#linearGradient3764);fill-opacity:1"/>
 </g>
 <path d="m 24 1 0 7 -7 0 0 -5.906 c -0.337 0.108 -0.67 0.221 -1 0.344 l 0 5.563 -7 0 0 -1.438 c -0.346 0.298 -0.673 0.62 -1 0.938 l 0 0.5 -0.5 0 c -0.318 0.327 -0.64 0.654 -0.938 1 l 1.438 0 0 7 -5.563 0 c -0.123 0.33 -0.236 0.663 -0.344 1 l 5.906 0 0 7 -7 0 c 0 0.334 0.017 0.669 0.031 1 l 6.969 0 0 7 -5.563 0 c 0.127 0.342 0.264 0.666 0.406 1 l 5.156 0 0 7 -0.5 0 c 0.481 0.496 0.976 0.986 1.5 1.438 l 0 -0.438 l 7 0 0 4.563 c 0.33 0.123 0.663 0.236 1 0.344 l 0 -4.906 l 7 0 0 6 c 0.334 0 0.669 -0.017 1 -0.031 l 0 -5.969 l 7 0 0 4.563 c 0.342 -0.127 0.666 -0.264 1 -0.406 l 0 -4.156 l 6.5 0 c 0.522 -0.476 1.024 -0.978 1.5 -1.5 l 0 -6.5 4.156 0 c 0.142 -0.334 0.279 -0.658 0.406 -1 l -4.563 0 l 0 -7 5.969 0 c 0.014 -0.331 0.031 -0.666 0.031 -1 l -6 0 0 -7 4.906 0 c -0.108 -0.337 -0.221 -0.67 -0.344 -1 l -4.563 0 0 -7 0.438 0 c -0.451 -0.524 -0.941 -1.019 -1.438 -1.5 l 0 0.5 -7 0 0 -5.156 c -0.334 -0.142 -0.658 -0.279 -1 -0.406 l 0 5.563 -7 0 0 -6.969 c -0.331 -0.014 -0.666 -0.031 -1 -0.031 z m -15 8 7 0 0 7 -7 0 0 -7 z m 8 0 7 0 0 7 -7 0 0 -7 z m 8 0 7 0 0 7 -7 0 0 -7 z m 8 0 7 0 0 7 -7 0 0 -7 z m -24 8 7 0 0 7 -7 0 0 -7 z m 8 0 7 0 0 7 -7 0 0 -7 z m 8 0 7 0 0 7 -7 0 0 -7 z m 8 0 7 0 0 7 -7 0 0 -7 z m -24 8 7 0 0 7 -7 0 0 -7 z m 8 0 7 0 0 7 -7 0 0 -7 z m 8 0 7 0 0 7 -7 0 0 -7 z m 8 0 7 0 0 7 -7 0 0 -7 z m -24 8 7 0 0 7 -7 0 0 -7 z m 8 0 7 0 0 7 -7 0 0 -7 z m 8 0 7 0 0 7 -7 0 0 -7 z m 8 0 7 0 0 7 -7 0 0 -7 z" style="fill:#a0dad0;fill-opacity:1"/>
 <path d="m 24 1 0 23 -23 0 c 0 0.335 0.011 0.668 0.025 1 l 22.975 0 0 22 c 0.335 0 0.668 -0.011 1 -0.025 l 0 -21.975 21.975 0 c 0.014 -0.332 0.025 -0.665 0.025 -1 l -22 0 0 -22.975 c -0.332 -0.014 -0.665 -0.025 -1 -0.025" style="fill:#666"/>
 <g>
  <path d="m 40.03 7.531 c 3.712 4.084 5.969 9.514 5.969 15.469 0 12.703 -10.297 23 -23 23 c -5.954 0 -11.384 -2.256 -15.469 -5.969 4.178 4.291 10.01 6.969 16.469 6.969 c 12.703 0 23 -10.298 23 -23 0 -6.462 -2.677 -12.291 -6.969 -16.469 z" style="opacity:0.1"/>
 </g>
 <g>
  <path d="m 35.547 38 -0.045 -0.703 c -0.348 -5.624 -0.919 -9.48 -1.629 -11.959 -0.71 -2.479 -1.555 -3.468 -2.193 -3.703 -0.319 -0.118 -0.648 -0.109 -1.084 0.047 -0.436 0.155 -0.954 0.472 -1.504 0.912 -1.099 0.881 -2.321 2.241 -3.555 3.623 -1.233 1.382 -2.477 2.784 -3.734 3.787 -0.629 0.501 -1.264 0.909 -1.938 1.145 -0.674 0.235 -1.414 0.284 -2.105 0.02 c -1.383 -0.528 -2.336 -2.057 -3.094 -4.74 -0.758 -2.683 -1.322 -6.723 -1.666 -12.428 l 1.498 0 c 0.341 5.647 0.906 9.522 1.611 12.02 0.705 2.497 1.549 3.505 2.186 3.748 0.318 0.121 0.643 0.114 1.076 -0.037 0.433 -0.151 0.948 -0.461 1.496 -0.898 1.096 -0.874 2.318 -2.232 3.551 -3.613 1.233 -1.382 2.478 -2.789 3.736 -3.797 0.629 -0.504 1.264 -0.912 1.938 -1.152 0.674 -0.24 1.413 -0.297 2.107 -0.041 1.388 0.512 2.351 2.03 3.115 4.697 c 0.764 2.667 1.334 7.393 1.686 13.07 c -1.01 -0.015 -1 0 -1.453 0 z" mix-blend-mode="normal" isolation="auto" white-space="normal" solid-opacity="1" solid-color="#000000" style="visibility:visible;shape-rendering:auto;color-interpolation-filters:linearRGB;fill:#000;opacity:1;image-rendering:auto;fill-opacity:0.098;stroke:none;display:inline;color:#000;fill-rule:evenodd;color-rendering:auto;color-interpolation:sRGB"/>
  <path d="m 34.547 37 -0.045 -0.703 c -0.348 -5.624 -0.919 -9.48 -1.629 -11.959 -0.71 -2.479 -1.555 -3.468 -2.193 -3.703 -0.319 -0.118 -0.648 -0.109 -1.084 0.047 -0.436 0.155 -0.954 0.472 -1.504 0.912 -1.099 0.881 -2.321 2.241 -3.555 3.623 -1.233 1.382 -2.477 2.784 -3.734 3.787 -0.629 0.501 -1.264 0.909 -1.938 1.145 -0.674 0.235 -1.414 0.284 -2.105 0.02 c -1.383 -0.528 -2.336 -2.057 -3.094 -4.74 -0.758 -2.683 -1.322 -6.723 -1.666 -12.428 l 1.498 0 c 0.341 5.647 0.906 9.522 1.611 12.02 0.705 2.497 1.549 3.505 2.186 3.748 0.318 0.121 0.643 0.114 1.076 -0.037 0.433 -0.151 0.948 -0.461 1.496 -0.898 1.096 -0.874 2.318 -2.232 3.551 -3.613 1.233 -1.382 2.478 -2.789 3.736 -3.797 0.629 -0.504 1.264 -0.912 1.938 -1.152 0.674 -0.24 1.413 -0.297 2.107 -0.041 1.388 0.512 2.351 2.03 3.115 4.697 c 0.764 2.667 1.334 7.393 1.686 13.07 c -1.01 -0.015 -1 0 -1.453 0 z" mix-blend-mode="normal" isolation="auto" white-space="normal" solid-opacity="1" solid-color="#000000" style="visibility:visible;shape-rendering:auto;color-interpolation-filters:linearRGB;fill:#e04c4c;opacity:1;image-rendering:auto;fill-opacity:1;stroke:none;display:inline;color:#000;fill-rule:evenodd;color-rendering:auto;color-interpolation:sRGB"/>
 </g>
</svg>
